assets/svg/icon_field_name.svg

<svg width="24" height="24" viewBox="0 0 24 24" fill="none" xmlns="http://www.w3.org/2000/svg">
<path d="M7.50781 10.0352H16.4928M14.6958 14.0664H16.4928M7.50781 14.0664H12.0003M4.36127 5.69851C5.24723 4.9095 6.46783 4.58594 7.81765 4.58594H16.1758C17.5256 4.58594 18.7463 4.9095 19.6321 5.69851C20.5265 6.49502 20.9817 7.67783 20.9817 9.19526V14.8066C20.9817 16.3241 20.5265 17.5069 19.6321 18.3034C18.7463 19.0924 17.5256 19.4159 16.1758 19.4159H7.81765C6.46783 19.4159 5.24723 19.0924 4.36127 18.3034C3.46692 17.5069 3.01172 16.3241 3.01172 14.8066V9.19526C3.01172 7.67783 3.46692 6.49502 4.36127 5.69851Z" stroke="#494949" stroke-width="1.35" stroke-linecap="round"/>
</svg>

<svg xmlns="http://www.w3.org/2000/svg" width="24" height="24" fill="none"><path stroke="#494949" stroke-linecap="round" stroke-width="1.35" d="M7.508 10.035h8.985m-1.797 4.031h1.797m-8.985 0H12M4.361 5.7c.886-.79 2.107-1.113 3.457-1.113h8.358c1.35 0 2.57.324 3.456 1.113.894.796 1.35 1.979 1.35 3.496v5.612c0 1.517-.456 2.7-1.35 3.496-.886.79-2.106 1.113-3.456 1.113H7.818c-1.35 0-2.57-.324-3.457-1.113-.894-.796-1.35-1.979-1.35-3.496V9.195c0-1.517.456-2.7 1.35-3.496Z"/></svg>
